X:1
T:I sung sometimes - Wilbye
T:#
%%score 1 2 3 4
L:1/8
Q:1/4=120
M:4/4
K:Bb
V:1 treble nm="Soprano I"
V:2 treble nm="Soprano II"
V:3 treble nm="Alto" snm="A"
V:4 treble-8 nm="Tenor" snm="T"
V:1
"^I sung sometimes""^John Wilbye\n (1574-1638)"!mf! d4 B2 G2 | d2 d2 e4 | d6 c2- | c2 B2 A4 | %4
w: I sung some-|times my thoughts'|and fan\-|* cy's plea-|
[M:4/4] G8- | G8 | z8 | z2!f! d2 e3 e | d2 d2 c3 c | B2 B2 B3 c | d2 d2 g2 (fe) | d2 c2 d4 | %12
w: sure,|||Where then I|list, where then I|list, where then I|list or time serv'd *|best and lei-|
 c4!p! G4 | A6 G2 | F4 G4 | A8 | =B4 (d4- | d2 c2) c4- | c4 (=B2 A2) | =B4"^cresc." c4 | c4 c4 | %21
w: sure, While|Daph- ne|did in-|vite|me To|* * sup\-|* per *|once, and|drank to|
 c6 c2 | d8 | =e6!f! c2 | c4 z2!p! =B2 | A2 G2 (G2 ^F2) | G6 G2 | =B2 d2 (cBcB) | A2 _B2 A4 | %29
w: me to|spite|me. I|smil'd, yet|still did doubt *|her, yet|still did doubt, * * *|still did doubt|
 G2!f! d2 g3 f | =e2 d2 c2 =B2 | c2 g2 g3 f | =e2 d2 c2 (=BA) | G4 A4 | G8- | G8 | A4!p! c4 | %37
w: her, And drank where|she had drank be-|fore, and drank where|she had drank be\- *|fore to|flout||her. But|
 d4 =e4 | f4 =e4- | e4 d4- | d4 ^c4 | z4 z2"^cresc." =e2 | f3 c d2 c2 | B2 G2 z4 | z2 d2 g3 d | %45
w: oh while|I did|* eye|* her,|but|Oh while I did|eye her,|but oh while|
 e2 d2 B2 G2 | z4 z2 d2 | d3 A B2 A2 | F2 D2 d2 f2- | f2 c2 d2 e2 | d8 | d8 | z8 | z4 z2!f! d2 | %54
w: I did eye her,|but|oh while I did|eye her, but oh|* while I did|eye|her,||Mine|
 d2 =e2 f3 f | _e4 d2 (c2- | c2 B2) A4 | =B8 |!p! c8 | c6 _B2 | A4 G4 | (F2 G2) A2 A2 | A4 A4- | %63
w: eyes drank love, my|lips drank burn\-|* * ing|fire,|but|oh while|I did|eye * her, did|eye her,|
 A4 z2"^cresc." =e2 | f3 c d2 c2 | A2 F2 z4 | z2 d2 g3 d | _e2 d2 B2 G2 | z4 z2 B2 | d3 A B2 A2 | %70
w: * but|oh while I did|eye her,|but oh while|I did eye her,|but|oh while I did|
 =F2 D2 z4 | z4 F4 | F2 G2 (AB c2- | c2) B2 A4 | G8 | z8 | z2!f! G2 G2 A2 | B3 B[Q:1/4=118] A4 | %78
w: eye her,|but|oh while I * *|* did eye|her,||Mine eyes drank|love, my lips|
[Q:1/4=114] G4[Q:1/4=111] ^F2[Q:1/4=109] G2 |[Q:1/4=107] (A2[Q:1/4=105] G4)[Q:1/4=102] ^F2 | %80
w: drank burn- ing,|burn\- * ing|
[Q:1/4=102] G16 |] %81
w: fire.|
V:2
 z4!mf! d4 | B2 G2 c2 c2 | B6 (AG) | ^F2 G2 (G2 F2) |[M:4/4] G4 z2 c2 | c2 =B2 c2 e2 | d4 c4 | z8 | %8
w: I|sung some- times my|thoughts' and *|fan- cy's plea\- *|sure, my|thoughts' and fan- cy's|plea- sure,||
 z2!f! d2 e3 e | d2 d2 g3 g | f2 f2 e2 (dc) | =B2 c2 (c2 B2) | c4 z2!p! c2 | c4 c4 | d6 d2 | d8 | %16
w: Where then I|list, where then I|list or time serv'd *|best and lei\- *|sure, While|Daph- ne|did in-|vite|
 d4 g4- | g4 f4- | f4 =e4 | d4 z2"^cresc." c2 | A6 G2 | A3 B (c4- | c2 =BA B4) | c6!f! =e2 | %24
w: me To|* sup\-|* per|once, and|drank to|me to spite||me. I|
 =e4 z2!p! d2 | =e3 d c4 | =B4 d4 | g3 f (=ed) e2 | d8 | d4 z2!f! d2 | g3 f =e2 d2 | c2 d2 =e2 g2 | %32
w: smil'd, yet|still did doubt|her, I|smil'd, yet still * did|doubt|her, And|drank where she had|drank be- fore, and|
 g3 f =e2 d2 | c2 =e2 d2 c2 | (=B2 c4 B2) | c4!p! c4 | c6 _B2 | A4 G4 | (F2 G2) A2 A2 | A4 A4- | %40
w: drank where she had|drank be- fore to|flout * *|her. But|oh while|I did|eye * her, did|eye her,|
 A4 z2"^cresc." =e2 | f3 c d2 c2 | A2 F2 z4 | z2 d2 g3 d | _e2 d2 B2 G2 | z4 z2 B2 | d3 A B2 A2 | %47
w: * but|Oh while I did|eye her,|but oh while|I did eye her,|but|oh while I did|
 =F2 D2 z4 | z4 F4 | F2 G2 (AB c2- | c2) B2 A4 | G8 | z8 | z2!f! G2 G2 A2 | B3 B A4 | G4 ^F2 G2 | %56
w: eye her,|but|oh while I * *|* did eye|||Mine eyes drank|love, my lips|drank burn- ing,|
 (A2 G4) ^F2 | G8- | G8 | z4!p! c4 | d4 =e4 | f4 =e4- | e4 d4- | d4 ^c4 | z4 z2"^cresc." =e2 | %65
w: burn\- * ing|fire,||but|oh while|I did|* eye|* her,|but|
 f3 c d2 c2 | B2 G2 z4 | z2 d2 g3 d | e2 d2 B2 G2 | z4 z2 d2 | d3 A B2 A2 | F2 D2 d2 f2- | %72
w: oh while I did|eye her,|but oh while|I did eye her,|but|oh while I did|eye her, but oh|
 f2 c2 d2 e2 | d8 | d8 | z8 | z4 z2!f! d2 | d2 =e2 f3 f | _e4 d2 (c2- | c2 B2) A4 | =B16 |] %81
w: * while I did|eye|her,||Mine|eyes drank love, my|lips drank burn\-|* * ing|fire.|
V:3
 z8 |!mf! G4 E2 C2 | G2 G,2 B,2 C2 | D4 D4 |[M:4/4] D4 G,4 | z2 G2 E2 C2 | G2 G2 G2 C2 | %7
w: |I sung some-|times my thoughts' and|fan- cy's|plea- sure,|I sung some-|times my thoughts' and|
w: |||||||
 C2 =B,2 C4 | G,4 z2!f! G2 | G2 G2 G2 B2 | F2 F2 G2 z2 | D2 (F3 E D2) | =E6!p! E2 | F6 G2 | %14
w: fan- cy's plea-|sure, Where|then I list or|time serv'd best|and lei\- * *|sure, While|Daph- ne|
w: |||||||
 A2 A2 (G4- | G2 ^F=E F4) | G4 G4 | G4 A4 | G8- | G4"^cresc." =E4 | F6 G2 | F4 =E4 | G8 | %23
w: did in- vite||me To|sup- per|once,|* and|drank to|me to|spite|
w: |||||||||
 G2!f! G2 (=EDEF | G2)!p! C2 D2 D2 | C4 C4 | z2 G,2 =B,2 C2 | D4 =E4 | (^F2 G4 F2) | G4 z4 | %30
w: me. I smil'd, * * *|* yet still did|doubt her,|I smil'd, yet|still did|doubt * *|her,|
w: |||||||
 z2!f! G2 G3 F | =E2 D2 C2 =B,2 | C2 D2 =E2 F2 | =E2 G2 F2 E2 | D2 C2 D4 | C8 |!p! C4 A,4- | %37
w: And drank where|she had drank be-|fore, and drank where|she had drank be-|fore to flout|her.|But oh|
w: |||||||
 A,4 C4 | D4 =E4 | F8 | =E8 |"^cresc." A2 A4 G2 | F2 F2 F3 =E | D3 C B,2 G,2 | z4 G4 | G3 D E2 G2 | %46
w: * while|I did|eye|her,|but oh while|I, but oh while|I did eye her,|but|oh while I did|
w: |||||||||
 ^F4 D4 | z2 D2 D3 A, | B,2 A,2 F,2 D,2 | z4 z2 G,2 | D8 | D2!f! B,2 B,2 B,2 | D3 D C2 C2 | %53
w: eye her,|but oh while|I did eye her,|did|eye|her, Mine eyes drank|love, my lips drank|
w: |||||||
 B,2 G,2 (D4 | G,4) A,4 | C2 G,2 D2 G2 | (D8- | D8 | =E8) |!p! A,8 | F,4 G,4 | A,4 A,4 | A,8- | %63
w: burn- ing fire,|* my|lips drank burn- ing|fire,|||but|oh while|I did|eye|
w: ||||||||||
 A,4 A,4 |"^cresc." C4 F3 =E | D2 C2 A,2 F,2 | z4 z2 D2 | G3 D _E2 D2 | B,2 G,2 z4 | z2 D2 D3 A, | %70
w: * her,|but oh while|I did eye her,|but|oh while I did|eye her,|but oh *|
w: ||||||* * while|
 B,2 A,2 F,2 D,2 | z2 A,2 B,2 A,2- | A,A, G,2 (^F,2 G,2- | G,4 ^F,4) | G,4 z2!f! D2 | D2 D2 F3 F | %76
w: ||||* Mine|eyes drank love, my|
w: I did eye her,|but oh while|* I did eye *||her, *||
 E2 D2 B,2 D2 | D6 C2 | C3 C A,2 G,2 | (^F,2 G,2) A,4 | G,16 |] %81
w: lips drank burn- ing|fire, my|lips drank burn- ing,|burn\- * ing|fire.|
w: |||||
V:4
 z8 | z8 | z8 | z4 z2!mf! d2 |[M:4/4][K:treble-8] B2 G2 c2 e2 | d4 c4 | d4 e4 | d4 c4 | %8
w: |||I|sung some- times my|thoughts' and|fan- cy's|plea- sure,|
 z2!f! =B2 c3 c | G2 d2 e3 e | d2 d2 G2 c2 | g2 c2 g4 | g4!p! c4 | c4 A4 | A4 B4 | d8 | d8 | z8 | %18
w: Where then I|list, where then I|list or time serv'd|best and lei-|sure, While|Daph- ne|did in-|vite|me,||
 z8 |"^cresc." G8 | A4 c4 | c4 A4 | d8 | c4!f! g4 | (=edef g2)!p! g2 | =e6 c2 | (dcd=e) d2 c2 | %27
w: |and|drank to|me to|spite|me. I|smil'd, * * * * yet|still did|doubt * * * her, yet|
 =B4 c4 | d8 | =B6"^cresc." B2 | (c2 d2) =e2!f! g2 | g3 f =e2 d2 | c2 G2 c4- | c2 =B2 A4 | %34
w: still did|doubt|her, did|doubt * her, And|drank where she had|drank be- fore,|* to flout|
 =B2 =e2 d4 | =e8 |!p! A8 | F4 G4 | A4 A4 | A8- | A4 A4 |"^cresc." c4 f3 =e | d2 c2 A2 F2 | %43
w: her, to flout|her.|But|oh while|I did|eye|* her,|but oh while|I did eye her,|
 z4 z2 d2 | g3 d _e2 d2 | B2 G2 z4 | z2 d2 d3 A | B2 A2 F2 D2 | z2 A2 B2 A2- | AA G2 (^F2 G2- | %50
w: but|oh while I did|eye her,|but oh while|I did eye her,|but oh while|* I did eye *|
 G4 ^F4) | G4 z2!f! d2 | d2 d2 f3 f | e2 d2 B2 d2 | d6 c2 | c3 c A2 G2 | (^F2 G2) A4 | G8- | %58
w: |her, Mine|eyes drank love, my|lips drank burn- ing|fire. by|lips drank burn- ing,|burn\- * ing|fire,|
 G4!p! c4- | c4 A4- | A4 c4 | d4 =e4 | f8 | =e8 |"^cresc." a2 a4 g2 | f2 f2 f3 =e | d3 c B2 G2 | %67
w: * but|* oh|* while|I did|eye|her,|but oh while|I, but oh while|I did eye her,|
 z4 g4 | g3 d e2 g2 | ^f4 d4 | z2 d2 d3 A | B2 A2 F2 D2 | z4 z2 G2 | d8 | d2!f! B2 B2 B2 | %75
w: but|oh while I did|eye her,|but oh while|I did eye her,|did|eye|her, Mine eyes drank|
 d3 d c2 c2 | B2 G2 (d4 | G4) A4 | c2 G2 d2 g2 | d8- | d16 |] %81
w: love, my lips drank|burn- ing fire,|* my|lips drank burn- ing|fire.||

